X: 43152
T: Winter In Columbus
R: reel
M: 4/4
K: Eminor
|:E2 GE BEGE|cBAG FEDF|E2 GE BEGE|cBAG F4|
E2 GE BEGE|cBAG FE D2|GFGA BcBA|1 cBAG FEDE:|2 cBAG F4||
|:B2 gf eB B2|cedB cB A/B/c|B2 gf eB B2|afdf gfed|
B2 gf eB B2|cedB cBAB|cBAG FGAB|1 cBAG FE D2:|2 cBAG F4||

